X:3
T:Pet trouz 'zou ar en douar
R:Chant catholique
C:Traditionnel
S:N°546, Tonoù Breiz-Izel, Polig Monjarret
Q:C3=68
P:EF7
M:12/8
%%MIDI program 19
%%MIDI gchord f3c3f3c3
%%MIDI chordprog 19
%%MIDI bassprog 19
%%MIDI bassvol 127
K:C
P:E
E \
P:F
|: "Am"E2 A A2 G "F"A3 c3 \
	|1 "G"B2 A G2 A "Em"E3-E2 E :|2  "G"B2 A G2 A "C"E6 |
"Am"A3 "Em"G2 E "Dm"F2 "Em"G E2 F | "C"E2 D C2 D "Em"E3-E2 E |\
	"Am"E2 A A2 G "F"A3 | c3 "G"B2 d c2 B "Am"A3-A2 E ||


